image/footer-icons/check-icon.svg

<svg width="30" height="30" viewBox="0 0 30 30" fill="none" xmlns="http://www.w3.org/2000/svg">
<path d="M15 0C6.71575 0 0 6.71575 0 15C0 23.2843 6.71575 30 15 30C23.2842 30 30 23.2843 30 15C30 6.71575 23.2842 0 15 0ZM15 3.25928C21.4842 3.25928 26.7389 8.5174 26.7389 15C26.7389 21.4826 21.4842 26.7389 15 26.7389C8.51575 26.7389 3.2611 21.4826 3.2611 15C3.26113 8.5174 8.51575 3.25928 15 3.25928ZM20.7477 7.8772L12.0538 16.5729L9.234 13.7531L6.46728 16.518L9.2871 19.3378L12.0721 22.1228L14.8371 19.3561L23.5327 10.6622L20.7477 7.8772Z" fill="white"/>
</svg>

<svg fill="none" height="30" width="30" xmlns="http://www.w3.org/2000/svg"><path d="M15 0C6.716 0 0 6.716 0 15c0 8.284 6.716 15 15 15 8.284 0 15-6.716 15-15 0-8.284-6.716-15-15-15zm0 3.26c6.484 0 11.739 5.257 11.739 11.74S21.484 26.739 15 26.739C8.516 26.739 3.261 21.483 3.261 15 3.261 8.517 8.516 3.26 15 3.26zm5.748 4.617l-8.694 8.696-2.82-2.82-2.767 2.765 2.82 2.82 2.785 2.785 2.765-2.767 8.696-8.694z" fill="#fff"/></svg>
